symbols/web/signal_wifi_off/materialsymbolsrounded/signal_wifi_off_wght300_20px.svg

<svg xmlns="http://www.w3.org/2000/svg" height="20" width="20"><path d="M14.729 12.188 6.708 4.167q.834-.229 1.646-.323Q9.167 3.75 10 3.75q2.458 0 4.719.823 2.26.823 4.093 2.406.25.209.261.531.01.323-.219.573Zm1.813 6.166-4.021-3.979-1.959 1.979q-.104.104-.26.167-.156.062-.302.083-.146 0-.302-.073t-.26-.177L1.146 8.083q-.229-.25-.219-.573.011-.322.24-.531.562-.479 1.156-.875.594-.396 1.198-.729L1.562 3.396q-.208-.188-.208-.448t.229-.49q.209-.208.459-.208t.479.208l14.958 14.98q.209.208.209.458t-.209.458q-.229.229-.489.229-.261 0-.448-.229Z"/></svg>

<svg xmlns="http://www.w3.org/2000/svg" height="20" width="20"><path d="M14.729 12.188 6.708 4.167Q7.542 3.938 8.354 3.844Q9.167 3.75 10 3.75Q12.458 3.75 14.719 4.573Q16.979 5.396 18.812 6.979Q19.062 7.188 19.073 7.51Q19.083 7.833 18.854 8.083ZM16.542 18.354 12.521 14.375 10.562 16.354Q10.458 16.458 10.302 16.521Q10.146 16.583 10 16.604Q9.854 16.604 9.698 16.531Q9.542 16.458 9.438 16.354L1.146 8.083Q0.917 7.833 0.927 7.51Q0.938 7.188 1.167 6.979Q1.729 6.5 2.323 6.104Q2.917 5.708 3.521 5.375L1.562 3.396Q1.354 3.208 1.354 2.948Q1.354 2.688 1.583 2.458Q1.792 2.25 2.042 2.25Q2.292 2.25 2.521 2.458L17.479 17.438Q17.688 17.646 17.688 17.896Q17.688 18.146 17.479 18.354Q17.25 18.583 16.99 18.583Q16.729 18.583 16.542 18.354Z"/></svg>
